!!!OTL: グランドエスケープ
**kern	**kern	**text	**dynam	**kern	**text	**dynam	**kern	**text	**dynam	**kern	**text	**kern	**text	**dynam
*part6	*part5	*part5	*part5	*part4	*part4	*part4	*part3	*part3	*part3	*part2	*part2	*part1	*part1	*part1
*staff6	*staff5	*staff5	*	*staff4	*staff4	*	*staff3	*staff3	*	*staff2	*staff2	*staff1	*staff1	*
*I"ドラムセット	*I"ピアノ	*	*	*I"ピアノ	*	*	*I"ピアノ	*	*	*I"ピアノ	*	*I"ピアノ	*	*
*I'D. Set	*I'Pno.	*	*	*I'Pno.	*	*	*I'Pno.	*	*	*I'Pno.	*	*I'Pno.	*	*
*clefX	*clefF4	*	*	*clefG2	*	*	*clefG2	*	*	*clefG2	*	*clefG2	*	*
*k[]	*k[f#c#g#d#]	*	*	*k[f#c#g#d#]	*	*	*k[f#c#g#d#]	*	*	*k[f#c#g#d#]	*	*k[f#c#g#d#]	*	*
*M4/4	*M4/4	*	*	*M4/4	*	*	*M4/4	*	*	*M4/4	*	*M4/4	*	*
=1	=1	=1	=1	=1	=1	=1	=1	=1	=1	=1	=1	=1	=1	=1
1r	1r	.	.	(8c#L	lu	mp	1r	.	.	1r	.	1r	.	.
.	.	.	.	8f#	lu	.	.	.	.	.	.	.	.	.
.	.	.	.	8g#)	lu	.	.	.	.	.	.	.	.	.
.	.	.	.	(8c#J	.	.	.	.	.	.	.	.	.	.
.	.	.	.	8f#L	.	.	.	.	.	.	.	.	.	.
.	.	.	.	8g#)	.	.	.	.	.	.	.	.	.	.
.	.	.	.	(8c#	.	.	.	.	.	.	.	.	.	.
.	.	.	.	8f#J	.	.	.	.	.	.	.	.	.	.
=2	=2	=2	=2	=2	=2	=2	=2	=2	=2	=2	=2	=2	=2	=2
1r	1r	.	.	8g#L)	.	.	1r	.	.	1r	.	1r	.	.
.	.	.	.	(8c#	.	.	.	.	.	.	.	.	.	.
.	.	.	.	8f#)	.	.	.	.	.	.	.	.	.	.
.	.	.	.	8g#J	.	.	.	.	.	.	.	.	.	.
.	.	.	.	(8c#L	lu	.	.	.	.	.	.	.	.	.
.	.	.	.	8e)	lu	.	.	.	.	.	.	.	.	.
.	.	.	.	(8f#	lu	.	.	.	.	.	.	.	.	.
.	.	.	.	8g#J)	lu	.	.	.	.	.	.	.	.	.
=3	=3	=3	=3	=3	=3	=3	=3	=3	=3	=3	=3	=3	=3	=3
1r	1r	.	.	1r	.	.	(8eL	tu	mp	1r	.	1r	.	.
.	.	.	.	.	.	.	8a	lu	.	.	.	.	.	.
.	.	.	.	.	.	.	8b)	lu	.	.	.	.	.	.
.	.	.	.	.	.	.	(8eJ	.	.	.	.	.	.	.
.	.	.	.	.	.	.	8aL	.	.	.	.	.	.	.
.	.	.	.	.	.	.	8b)	.	.	.	.	.	.	.
.	.	.	.	.	.	.	(8e	.	.	.	.	.	.	.
.	.	.	.	.	.	.	8aJ	.	.	.	.	.	.	.
=4	=4	=4	=4	=4	=4	=4	=4	=4	=4	=4	=4	=4	=4	=4
1r	1r	.	.	1r	.	.	8bL)	.	.	1r	.	1r	.	.
.	.	.	.	.	.	.	(8e	.	.	.	.	.	.	.
.	.	.	.	.	.	.	8a	.	.	.	.	.	.	.
.	.	.	.	.	.	.	8bJ)	.	.	.	.	.	.	.
.	.	.	.	.	.	.	(8eL	lu	.	.	.	.	.	.
.	.	.	.	.	.	.	8aJ)	lu	.	.	.	.	.	.
.	.	.	.	.	.	.	4g#	lu	.	.	.	.	.	.
=5	=5	=5	=5	=5	=5	=5	=5	=5	=5	=5	=5	=5	=5	=5
1r	1r	.	.	(8c#L	tu	.	(8eL	tu	.	1r	.	1r	.	.
.	.	.	.	8f#	lu	.	8a	lu	.	.	.	.	.	.
.	.	.	.	8g#)	lu	.	8b)	lu	.	.	.	.	.	.
.	.	.	.	(8c#J	.	.	(8eJ	.	.	.	.	.	.	.
.	.	.	.	8f#L	.	.	8aL	.	.	.	.	.	.	.
.	.	.	.	8g#)	.	.	8b)	.	.	.	.	.	.	.
.	.	.	.	(8c#	.	.	(8e	.	.	.	.	.	.	.
.	.	.	.	8f#J)	.	.	8aJ)	.	.	.	.	.	.	.
=6	=6	=6	=6	=6	=6	=6	=6	=6	=6	=6	=6	=6	=6	=6
1r	1r	.	.	8g#L	.	.	8bL	.	.	1r	.	1r	.	.
.	.	.	.	(8c#	.	.	(8e	.	.	.	.	.	.	.
.	.	.	.	8f#)	.	.	8a	.	.	.	.	.	.	.
.	.	.	.	8g#J	.	.	8bJ)	.	.	.	.	.	.	.
.	.	.	.	(8c#L	lu	.	(8eL	lu	.	.	.	.	.	.
.	.	.	.	8e)	lu	.	8g#)	lu	.	.	.	.	.	.
.	.	.	.	(8f#	lu	.	(8a	lu	.	.	.	.	.	.
.	.	.	.	8g#J)	lu	.	8bJ)	lu	.	.	.	.	.	.
=7	=7	=7	=7	=7	=7	=7	=7	=7	=7	=7	=7	=7	=7	=7
1r	8b	.	mp	(8c#L	tu	.	(8eL	tu	.	[1cc#	fu	1r	.	.
.	16r	.	.	8f#	lu	.	8a	lu	.	.	.	.	.	.
.	8cc#	.	.	.	.	.	.	.	.	.	.	.	.	.
.	.	.	.	8g#)	lu	.	8b)	lu	.	.	.	.	.	.
.	16r	.	.	.	.	.	.	.	.	.	.	.	.	.
.	8g#	.	.	(8c#J	.	.	(8eJ	.	.	.	.	.	.	.
.	16r	.	.	8f#L	.	.	8aL	.	.	.	.	.	.	.
.	8a	.	.	.	.	.	.	.	.	.	.	.	.	.
.	.	.	.	8g#)	.	.	8b)	.	.	.	.	.	.	.
.	16r	.	.	.	.	.	.	.	.	.	.	.	.	.
.	8eL	.	.	(8c#	.	.	(8e	.	.	.	.	.	.	.
.	8eJ	.	.	8f#J)	.	.	8aJ	.	.	.	.	.	.	.
=8	=8	=8	=8	=8	=8	=8	=8	=8	=8	=8	=8	=8	=8	=8
1r	8e	.	.	8g#L	.	.	8bL)	.	.	1cc#]	.	1r	.	.
.	16r	.	.	(8c#	.	.	(8e	.	.	.	.	.	.	.
.	8f#	.	.	.	.	.	.	.	.	.	.	.	.	.
.	.	.	.	8f#)	.	.	8a)	.	.	.	.	.	.	.
.	16r	.	.	.	.	.	.	.	.	.	.	.	.	.
.	8B	.	.	8g#J	.	.	8bJ	.	.	.	.	.	.	.
.	16r	.	.	(8c#L	lu	.	(8eL	lu	.	.	.	.	.	.
.	8B	.	.	.	.	.	.	.	.	.	.	.	.	.
.	.	.	.	8e)	lu	.	8g#)	lu	.	.	.	.	.	.
.	16r	.	.	.	.	.	.	.	.	.	.	.	.	.
.	8BL	.	.	(8f#	lu	.	(8a	lu	.	.	.	.	.	.
.	8BJ	.	.	8g#J)	lu	.	8bJ)	lu	.	.	.	.	.	.
=9	=9	=9	=9	=9	=9	=9	=9	=9	=9	=9	=9	=9	=9	=9
1r	8b	.	.	(8c#L	tu	.	(8eL	tu	.	[1b	uh	1r	.	.
.	16r	.	.	8f#	lu	.	8a	lu	.	.	.	.	.	.
.	8cc#	.	.	.	.	.	.	.	.	.	.	.	.	.
.	.	.	.	8g#)	lu	.	8b)	lu	.	.	.	.	.	.
.	16r	.	.	.	.	.	.	.	.	.	.	.	.	.
.	8g#	.	.	(8c#J	.	.	(8eJ	.	.	.	.	.	.	.
.	16r	.	.	8f#L	.	.	8aL	.	.	.	.	.	.	.
.	8a	.	.	.	.	.	.	.	.	.	.	.	.	.
.	.	.	.	8g#)	.	.	8b)	.	.	.	.	.	.	.
.	16r	.	.	.	.	.	.	.	.	.	.	.	.	.
.	8eL	.	.	(8c#	.	.	(8e	.	.	.	.	.	.	.
.	8eJ	.	.	8f#J	.	.	8aJ)	.	.	.	.	.	.	.
=10	=10	=10	=10	=10	=10	=10	=10	=10	=10	=10	=10	=10	=10	=10
1r	8e	.	.	8g#L)	.	.	8bL	.	.	2.b]	.	1r	.	.
.	16r	.	.	(8c#	.	.	(8e	.	.	.	.	.	.	.
.	8f#	.	.	.	.	.	.	.	.	.	.	.	.	.
.	.	.	.	8f#	.	.	8a	.	.	.	.	.	.	.
.	16r	.	.	.	.	.	.	.	.	.	.	.	.	.
.	8B	.	.	8g#J)	.	.	8bJ)	.	.	.	.	.	.	.
.	16r	.	.	(8c#L	tu	.	(8eL	tu	.	.	.	.	.	.
.	8B	.	.	.	.	.	.	.	.	.	.	.	.	.
.	.	.	.	8f#J)	lu	.	8aJ)	lu	.	.	.	.	.	.
.	16r	.	.	.	.	.	.	.	.	.	.	.	.	.
.	4r	.	.	8r	.	.	8r	.	.	8r	.	.	.	.
.	.	.	.	[8fn	ha	.	[8a	ha	.	[8ccn	ha	.	.	.
=11	=11	=11	=11	=11	=11	=11	=11	=11	=11	=11	=11	=11	=11	=11
1r	1r	.	.	1f_	.	.	1a_	.	.	1cc_	.	1r	.	.
=12	=12	=12	=12	=12	=12	=12	=12	=12	=12	=12	=12	=12	=12	=12
1r	1r	.	.	2f]	.	.	2a]	.	.	2cc]	.	1r	.	.
.	.	.	.	2fn	fu	.	2g#	fu	.	2ccn	fu	.	.	.
=13	=13	=13	=13	=13	=13	=13	=13	=13	=13	=13	=13	=13	=13	=13
1r	2E	.	mp	1r	.	.	1r	.	.	1r	.	4r	.	.
.	.	.	.	.	.	.	.	.	.	.	.	8ee	空	mp
.	.	.	.	.	.	.	.	.	.	.	.	4.ee	.	.
.	2F#	.	.	.	.	.	.	.	.	.	.	.	.	.
.	.	.	.	.	.	.	.	.	.	.	.	8eeL	飛	.
.	.	.	.	.	.	.	.	.	.	.	.	[8eeJ	ぶ	.
=14	=14	=14	=14	=14	=14	=14	=14	=14	=14	=14	=14	=14	=14	=14
1r	1G#	.	.	1r	.	.	1r	.	.	1r	.	4ee]	.	.
.	.	.	.	.	.	.	.	.	.	.	.	8b	羽根	.
.	.	.	.	.	.	.	.	.	.	.	.	4.b	.	.
.	.	.	.	.	.	.	.	.	.	.	.	8bL	と	.
.	.	.	.	.	.	.	.	.	.	.	.	[8cc#J	引	.
=15	=15	=15	=15	=15	=15	=15	=15	=15	=15	=15	=15	=15	=15	=15
1r	1A	.	.	1r	.	.	1r	.	.	1r	.	4cc#]	.	.
.	.	.	.	.	.	.	.	.	.	.	.	8b	き	.
.	.	.	.	.	.	.	.	.	.	.	.	4.b	換	.
.	.	.	.	.	.	.	.	.	.	.	.	8aL	え	.
.	.	.	.	.	.	.	.	.	.	.	.	[8bJ	に	.
=16	=16	=16	=16	=16	=16	=16	=16	=16	=16	=16	=16	=16	=16	=16
1r	1E	.	.	1r	.	.	1r	.	.	1r	.	8b]	.	.
.	.	.	.	.	.	.	.	.	.	.	.	8r	.	.
.	.	.	.	.	.	.	.	.	.	.	.	4r	.	.
.	.	.	.	.	.	.	.	.	.	.	.	2r	.	.
=17	=17	=17	=17	=17	=17	=17	=17	=17	=17	=17	=17	=17	=17	=17
1r	2E	.	.	1r	.	.	1r	.	.	1r	.	4r	.	.
.	.	.	.	.	.	.	.	.	.	.	.	8ee	繋	.
.	.	.	.	.	.	.	.	.	.	.	.	4.ee	.	.
.	2F#	.	.	.	.	.	.	.	.	.	.	.	.	.
.	.	.	.	.	.	.	.	.	.	.	.	8eeL	ぎ	.
.	.	.	.	.	.	.	.	.	.	.	.	[8eeJ	合	.
=18	=18	=18	=18	=18	=18	=18	=18	=18	=18	=18	=18	=18	=18	=18
1r	1G#	.	.	1r	.	.	1r	.	.	1r	.	4ee]	う	.
.	.	.	.	.	.	.	.	.	.	.	.	8b	手	.
.	.	.	.	.	.	.	.	.	.	.	.	4.b	を	.
.	.	.	.	.	.	.	.	.	.	.	.	8bL	選	.
.	.	.	.	.	.	.	.	.	.	.	.	[8eJ	ん	.
=19	=19	=19	=19	=19	=19	=19	=19	=19	=19	=19	=19	=19	=19	=19
1r	2A	.	.	1r	.	.	1r	.	.	1r	.	4e]	.	.
.	.	.	.	.	.	.	.	.	.	.	.	8g#	だ	.
.	.	.	.	.	.	.	.	.	.	.	.	4.f#	ぼ	.
.	2B	.	.	.	.	.	.	.	.	.	.	.	.	.
.	.	.	.	.	.	.	.	.	.	.	.	8eL	く	.
.	.	.	.	.	.	.	.	.	.	.	.	[8eJ	ら	.
=20	=20	=20	=20	=20	=20	=20	=20	=20	=20	=20	=20	=20	=20	=20
1r	1c#	.	.	1r	.	.	1r	.	.	1r	.	8e]	.	.
.	.	.	.	.	.	.	.	.	.	.	.	8r	.	.
.	.	.	.	.	.	.	.	.	.	.	.	4r	.	.
.	.	.	.	.	.	.	.	.	.	.	.	2r	.	.
=21	=21	=21	=21	=21	=21	=21	=21	=21	=21	=21	=21	=21	=21	=21
1r	2E	.	.	1r	.	.	1r	.	.	1r	.	4r	.	.
.	.	.	.	.	.	.	.	.	.	.	.	8ee	そ	.
.	.	.	.	.	.	.	.	.	.	.	.	4.ee	れ	.
.	2F#	.	.	.	.	.	.	.	.	.	.	.	.	.
.	.	.	.	.	.	.	.	.	.	.	.	8eeL	で	.
.	.	.	.	.	.	.	.	.	.	.	.	[8eeJ	も	.
=22	=22	=22	=22	=22	=22	=22	=22	=22	=22	=22	=22	=22	=22	=22
1r	1G#	.	.	1r	.	.	1r	.	.	1r	.	4ee]	.	.
.	.	.	.	.	.	.	.	.	.	.	.	8b	空	.
.	.	.	.	.	.	.	.	.	.	.	.	4.b	.	.
.	.	.	.	.	.	.	.	.	.	.	.	8bL	に	.
.	.	.	.	.	.	.	.	.	.	.	.	[8cc#J	魅	.
=23	=23	=23	=23	=23	=23	=23	=23	=23	=23	=23	=23	=23	=23	=23
1r	1A	.	.	1r	.	.	1r	.	.	1r	.	4cc#]	.	.
.	.	.	.	.	.	.	.	.	.	.	.	8b	せ	.
.	.	.	.	.	.	.	.	.	.	.	.	4.b	ら	.
.	.	.	.	.	.	.	.	.	.	.	.	8aL	れ	.
.	.	.	.	.	.	.	.	.	.	.	.	[8bJ	て	.
=24	=24	=24	=24	=24	=24	=24	=24	=24	=24	=24	=24	=24	=24	=24
1r	1E	.	.	1r	.	.	1r	.	.	1r	.	8b]	.	.
.	.	.	.	.	.	.	.	.	.	.	.	8r	.	.
.	.	.	.	.	.	.	.	.	.	.	.	4r	.	.
.	.	.	.	.	.	.	.	.	.	.	.	2r	.	.
=25	=25	=25	=25	=25	=25	=25	=25	=25	=25	=25	=25	=25	=25	=25
1r	2E	.	.	1r	.	.	1r	.	.	1r	.	4r	.	.
.	.	.	.	.	.	.	.	.	.	.	.	8ee	夢	.
.	.	.	.	.	.	.	.	.	.	.	.	4.ee	.	.
.	2F#	.	.	.	.	.	.	.	.	.	.	.	.	.
.	.	.	.	.	.	.	.	.	.	.	.	8eeL	を	.
.	.	.	.	.	.	.	.	.	.	.	.	[8eeJ	か	.
=26	=26	=26	=26	=26	=26	=26	=26	=26	=26	=26	=26	=26	=26	=26
1r	1G#	.	.	1r	.	.	1r	.	.	1r	.	4ee]	.	.
.	.	.	.	.	.	.	.	.	.	.	.	8b	さ	.
.	.	.	.	.	.	.	.	.	.	.	.	4.b	ね	.
.	.	.	.	.	.	.	.	.	.	.	.	8bL	る	.
.	.	.	.	.	.	.	.	.	.	.	.	[8eJ	の	.
=27	=27	=27	=27	=27	=27	=27	=27	=27	=27	=27	=27	=27	=27	=27
1r	2A	.	.	1r	.	.	1r	.	.	1r	.	4e]	.	.
.	.	.	.	.	.	.	.	.	.	.	.	8g#	は	.
.	.	.	.	.	.	.	.	.	.	.	.	4.f#	つ	.
.	2B	.	.	.	.	.	.	.	.	.	.	.	.	.
.	.	.	.	.	.	.	.	.	.	.	.	8eL	み	.
.	.	.	.	.	.	.	.	.	.	.	.	[8eJ	か	.
=28	=28	=28	=28	=28	=28	=28	=28	=28	=28	=28	=28	=28	=28	=28
1r	[1C#	fu	.	[1e	fu	.	[1e	fu	.	[1g#	fu	8e]	.	.
.	.	.	.	.	.	.	.	.	.	.	.	8r	.	.
.	.	.	.	.	.	.	.	.	.	.	.	4r	.	.
.	.	.	.	.	.	.	.	.	.	.	.	2r	.	.
=29	=29	=29	=29	=29	=29	=29	=29	=29	=29	=29	=29	=29	=29	=29
1r	4C#]	.	.	4e]	.	.	4e]	.	.	4g#]	.	1r	.	.
.	4r	.	.	4r	.	.	4r	.	.	4r	.	.	.	.
.	8C#L	la	.	8eL	la	.	8g#L	la	.	8bL	la	.	.	.
.	8BBJ	la	.	8f#J	la	.	8aJ	la	.	8cc#J	la	.	.	.
.	4AA	la	.	4d#	la	.	4f#	la	.	4a	la	.	.	.
=30	=30	=30	=30	=30	=30	=30	=30	=30	=30	=30	=30	=30	=30	=30
1r	2E	.	.	2e	fu	.	2e	fu	.	2g#	fu	4r	.	.
.	.	.	.	.	.	.	.	.	.	.	.	8ee	夏	.
.	.	.	.	.	.	.	.	.	.	.	.	4.ee	.	.
.	2F#	.	.	2f#	uh	.	2a	uh	.	2cc#	uh	.	.	.
.	.	.	.	.	.	.	.	.	.	.	.	8eeL	は	.
.	.	.	.	.	.	.	.	.	.	.	.	[8eeJ	あ	.
=31	=31	=31	=31	=31	=31	=31	=31	=31	=31	=31	=31	=31	=31	=31
1r	1G#	.	.	1e	uh	.	1g#	uh	.	1b	uh	4ee]	.	.
.	.	.	.	.	.	.	.	.	.	.	.	8b	き	.
.	.	.	.	.	.	.	.	.	.	.	.	4.b	の	.
.	.	.	.	.	.	.	.	.	.	.	.	8bL	せ	.
.	.	.	.	.	.	.	.	.	.	.	.	[8cc#J	な	.
=32	=32	=32	=32	=32	=32	=32	=32	=32	=32	=32	=32	=32	=32	=32
1r	1A	.	.	1e	fu	.	1a	fu	.	(2a	fu	4cc#]	.	.
.	.	.	.	.	.	.	.	.	.	.	.	8b	か	.
.	.	.	.	.	.	.	.	.	.	.	.	4.b	を	.
.	.	.	.	.	.	.	.	.	.	2b)	u	.	.	.
.	.	.	.	.	.	.	.	.	.	.	.	8aL	見て	.
.	.	.	.	.	.	.	.	.	.	.	.	[8bJ	.	.
=33	=33	=33	=33	=33	=33	=33	=33	=33	=33	=33	=33	=33	=33	=33
1r	1E	.	.	1c#	uh	.	1g#	uh	.	1e	uh	8b]	.	.
.	.	.	.	.	.	.	.	.	.	.	.	2r	.	.
.	.	.	.	.	.	.	.	.	.	.	.	4r	.	.
.	.	.	.	.	.	.	.	.	.	.	.	8r	.	.
=34	=34	=34	=34	=34	=34	=34	=34	=34	=34	=34	=34	=34	=34	=34
1r	2E	.	.	2e	fu	.	2e	fu	.	2g#	fu	4r	.	.
.	.	.	.	.	.	.	.	.	.	.	.	8ee	そ	.
.	.	.	.	.	.	.	.	.	.	.	.	4.ee	の	.
.	2F#	.	.	2f#	uh	.	2a	uh	.	2cc#	uh	.	.	.
.	.	.	.	.	.	.	.	.	.	.	.	8eeL	顔	.
.	.	.	.	.	.	.	.	.	.	.	.	[8eeJ	.	.
=35	=35	=35	=35	=35	=35	=35	=35	=35	=35	=35	=35	=35	=35	=35
1r	1G#	.	.	1e	uh	.	1g#	uh	.	1b	uh	4ee]	.	.
.	.	.	.	.	.	.	.	.	.	.	.	8b	を	.
.	.	.	.	.	.	.	.	.	.	.	.	4.b	お	.
.	.	.	.	.	.	.	.	.	.	.	.	8bL	も	.
.	.	.	.	.	.	.	.	.	.	.	.	[8eJ	い	.
=36	=36	=36	=36	=36	=36	=36	=36	=36	=36	=36	=36	=36	=36	=36
1r	2A	.	.	2e	fu	.	2a	fu	.	2a	fu	4e]	.	.
.	.	.	.	.	.	.	.	.	.	.	.	8g#	浮	.
.	.	.	.	.	.	.	.	.	.	.	.	4.f#	か	.
.	2B	.	.	2f#	uh	.	2b	uh	.	2b	uh	.	.	.
.	.	.	.	.	.	.	.	.	.	.	.	8eL	べ	.
.	.	.	.	.	.	.	.	.	.	.	.	[8eJ	る	.
=37	=37	=37	=37	=37	=37	=37	=37	=37	=37	=37	=37	=37	=37	=37
1r	2.c#	.	.	2.c#	uh	.	2.e	uh	.	2.e	uh	8e]	.	.
.	.	.	.	.	.	.	.	.	.	.	.	2r	.	.
.	.	.	.	.	.	.	.	.	.	.	.	4r	.	.
.	4B	.	.	4B	ha	.	4f#	ha	.	4d#	ha	.	.	.
.	.	.	.	.	.	.	.	.	.	.	.	8r	.	.
=38	=38	=38	=38	=38	=38	=38	=38	=38	=38	=38	=38	=38	=38	=38
1r	2E	.	.	2c#	fu	.	2e	fu	.	2e	fu	4r	.	.
.	.	.	.	.	.	.	.	.	.	.	.	8ee	憧	.
.	.	.	.	.	.	.	.	.	.	.	.	4.ee	.	.
.	2F#	.	.	2d#	uh	.	2f#	uh	.	2f#	uh	.	.	.
.	.	.	.	.	.	.	.	.	.	.	.	8eeL	が	.
.	.	.	.	.	.	.	.	.	.	.	.	[8eeJ	れ	.
=39	=39	=39	=39	=39	=39	=39	=39	=39	=39	=39	=39	=39	=39	=39
1r	1G#	.	.	1e	uh	.	1g#	uh	.	1g#	uh	4ee]	.	.
.	.	.	.	.	.	.	.	.	.	.	.	8b	な	.
.	.	.	.	.	.	.	.	.	.	.	.	4.b	の	.
.	.	.	.	.	.	.	.	.	.	.	.	8bL	か	.
.	.	.	.	.	.	.	.	.	.	.	.	[8cc#J	恋	.
=40	=40	=40	=40	=40	=40	=40	=40	=40	=40	=40	=40	=40	=40	=40
1r	1A	.	.	1c#	fu	.	2cc#	fu	.	1e	fu	4cc#]	.	.
.	.	.	.	.	.	.	.	.	.	.	.	8b	.	.
.	.	.	.	.	.	.	.	.	.	.	.	4.b	な	.
.	.	.	.	.	.	.	8cc#L	la	.	.	.	.	.	.
.	.	.	.	.	.	.	8bJ	la	.	.	.	.	.	.
.	.	.	.	.	.	.	4a	lu	.	.	.	8aL	の	.
.	.	.	.	.	.	.	.	.	.	.	.	[8bJ	か	.
=41	=41	=41	=41	=41	=41	=41	=41	=41	=41	=41	=41	=41	=41	=41
1r	1E	.	.	1e	uh	.	1g#	lu	.	4r	.	8b]	.	.
.	.	.	.	.	.	.	.	.	.	.	.	2r	.	.
.	.	.	.	.	.	.	.	.	.	4g#	fu	.	.	.
.	.	.	.	.	.	.	.	.	.	4.ff#	u	.	.	.
.	.	.	.	.	.	.	.	.	.	.	.	4r	.	.
.	.	.	.	.	.	.	.	.	.	8dd#	u	8r	.	.
=42	=42	=42	=42	=42	=42	=42	=42	=42	=42	=42	=42	=42	=42	=42
1r	2E	.	.	2e	fu	.	2g#	fu	.	[1ee	uh	4r	.	.
.	.	.	.	.	.	.	.	.	.	.	.	8ee	叶	.
.	.	.	.	.	.	.	.	.	.	.	.	4ee	.	.
.	2F#	.	.	2f#	uh	.	2a	uh	.	.	.	.	.	.
.	.	.	.	.	.	.	.	.	.	.	.	8dd#L	わ	.
.	.	.	.	.	.	.	.	.	.	.	.	8dd#	ぬ	.
.	.	.	.	.	.	.	.	.	.	.	.	[8eeJ	.	.
=43	=43	=43	=43	=43	=43	=43	=43	=43	=43	=43	=43	=43	=43	=43
1r	1G#	.	.	1e	uh	.	2a	uh	.	2ee]	.	4ee]	.	.
.	.	.	.	.	.	.	.	.	.	.	.	8dd#	と	.
.	.	.	.	.	.	.	.	.	.	.	.	4.ee	知	.
.	.	.	.	.	.	.	2b	uh	.	2r	.	.	.	.
.	.	.	.	.	.	.	.	.	.	.	.	8dd#L	っ	.
.	.	.	.	.	.	.	.	.	.	.	.	[8eeJ	て	.
=44	=44	=44	=44	=44	=44	=44	=44	=44	=44	=44	=44	=44	=44	=44
1r	1A	.	.	1c#	fu	.	1e	fu	.	2.ee	fu	4ee]	.	.
.	.	.	.	.	.	.	.	.	.	.	.	8gg#	い	.
.	.	.	.	.	.	.	.	.	.	.	.	4.ff#	な	.
.	.	.	.	.	.	.	.	.	.	4dd#	u	8eeL	が	.
.	.	.	.	.	.	.	.	.	.	.	.	[8eeJ	ら	.
=45	=45	=45	=45	=45	=45	=45	=45	=45	=45	=45	=45	=45	=45	=45
1r	1E	.	.	1c#	uh	.	1e	uh	.	1ee	uh	2ee]	.	.
.	.	.	.	.	.	.	.	.	.	.	.	8r	.	.
.	.	.	.	.	.	.	.	.	.	.	.	4r	.	.
.	.	.	.	.	.	.	.	.	.	.	.	8r	.	.
=46	=46	=46	=46	=46	=46	=46	=46	=46	=46	=46	=46	=46	=46	=46
1r	1E	.	.	1c#	uh	.	1e	uh	.	1ee	uh	1r	.	.
=47	=47	=47	=47	=47	=47	=47	=47	=47	=47	=47	=47	=47	=47	=47
1r	2E	.	.	1c#	uh	.	1e	uh	.	1ee	uh	1r	.	.
.	2C#	.	.	.	.	.	.	.	.	.	.	.	.	.
=48	=48	=48	=48	=48	=48	=48	=48	=48	=48	=48	=48	=48	=48	=48
8r	1GG#	.	.	1g#	uh	.	1a	uh	.	1cc#	uh	4r	.	.
8Rgg/	.	.	.	.	.	.	.	.	.	.	.	.	.	.
8r	.	.	.	.	.	.	.	.	.	.	.	8bbL	重力	.
8Rgg/	.	.	.	.	.	.	.	.	.	.	.	8eeJ	.	.
8r	.	.	.	.	.	.	.	.	.	.	.	4ee	.	.
8Rgg/	.	.	.	.	.	.	.	.	.	.	.	.	.	.
8r	.	.	.	.	.	.	.	.	.	.	.	8eeL	.	.
8Rgg/	.	.	.	.	.	.	.	.	.	.	.	8dd#J	が	.
=49	=49	=49	=49	=49	=49	=49	=49	=49	=49	=49	=49	=49	=49	=49
8r	1AA	.	.	1f#	uh	.	1b	uh	.	1b	uh	8eeL	眠り	.
8Rgg/	.	.	.	.	.	.	.	.	.	.	.	8ee	.	.
8r	.	.	.	.	.	.	.	.	.	.	.	8ff#J	.	.
8Rgg/	.	.	.	.	.	.	.	.	.	.	.	4gg#	に	.
8r	.	.	.	.	.	.	.	.	.	.	.	.	.	.
8Rgg/	.	.	.	.	.	.	.	.	.	.	.	4ee	着く	.
8r	.	.	.	.	.	.	.	.	.	.	.	.	.	.
8Rgg/	.	.	.	.	.	.	.	.	.	.	.	[8b	千	.
=50	=50	=50	=50	=50	=50	=50	=50	=50	=50	=50	=50	=50	=50	=50
8r	1BB	.	.	1g#	uh	.	1a	uh	.	1cc#	uh	8bL]	年	.
8Rgg/	.	.	.	.	.	.	.	.	.	.	.	8b	に	.
8r	.	.	.	.	.	.	.	.	.	.	.	8ee	一度	.
8Rgg/	.	.	.	.	.	.	.	.	.	.	.	8eeJ	の	.
8r	.	.	.	.	.	.	.	.	.	.	.	8eeL	今日	.
8Rgg/	.	.	.	.	.	.	.	.	.	.	.	8ee	.	.
8r	.	.	.	.	.	.	.	.	.	.	.	8ff#	.	.
8Rgg/	.	.	.	.	.	.	.	.	.	.	.	[8eeJ	.	.
=51	=51	=51	=51	=51	=51	=51	=51	=51	=51	=51	=51	=51	=51	=51
8r	1C#	.	.	1g#	uh	.	1b	uh	.	1b	uh	2ee]	.	.
8Rgg/	.	.	.	.	.	.	.	.	.	.	.	.	.	.
8r	.	.	.	.	.	.	.	.	.	.	.	.	.	.
8Rgg/	.	.	.	.	.	.	.	.	.	.	.	.	.	.
8r	.	.	.	.	.	.	.	.	.	.	.	2r	.	.
8Rgg/	.	.	.	.	.	.	.	.	.	.	.	.	.	.
8r	.	.	.	.	.	.	.	.	.	.	.	.	.	.
8Rgg/	.	.	.	.	.	.	.	.	.	.	.	.	.	.
=52	=52	=52	=52	=52	=52	=52	=52	=52	=52	=52	=52	=52	=52	=52
8r	1GG#	.	.	1g#	fu	.	1a	fu	.	1cc#	fu	4r	.	.
8Rgg/	.	.	.	.	.	.	.	.	.	.	.	.	.	.
8r	.	.	.	.	.	.	.	.	.	.	.	8bbL	太陽	.
8Rgg/	.	.	.	.	.	.	.	.	.	.	.	8eeJ	.	.
8r	.	.	.	.	.	.	.	.	.	.	.	8eeL	.	.
8Rgg/	.	.	.	.	.	.	.	.	.	.	.	8dd#	.	.
8r	.	.	.	.	.	.	.	.	.	.	.	8dd#	の	.
8Rgg/	.	.	.	.	.	.	.	.	.	.	.	8dd#J	死角	.
=53	=53	=53	=53	=53	=53	=53	=53	=53	=53	=53	=53	=53	=53	=53
8r	1AA	.	.	1f#	uh	.	1b	uh	.	1b	uh	8eeL	.	.
8Rgg/	.	.	.	.	.	.	.	.	.	.	.	8ee	.	.
8r	.	.	.	.	.	.	.	.	.	.	.	8ff#J	に	.
8Rgg/	.	.	.	.	.	.	.	.	.	.	.	4gg#	立ち	.
8r	.	.	.	.	.	.	.	.	.	.	.	.	.	.
8Rgg/	.	.	.	.	.	.	.	.	.	.	.	4ee	僕	.
8r	.	.	.	.	.	.	.	.	.	.	.	.	.	.
8Rgg/	.	.	.	.	.	.	.	.	.	.	.	8b	ら	.
=54	=54	=54	=54	=54	=54	=54	=54	=54	=54	=54	=54	=54	=54	=54
8r	1BB	.	.	1g#	uh	.	1a	uh	.	1cc#	uh	8eeL	こ	.
8Rgg/	.	.	.	.	.	.	.	.	.	.	.	8ee	の	.
8r	.	.	.	.	.	.	.	.	.	.	.	8ee	星	.
8Rgg/	.	.	.	.	.	.	.	.	.	.	.	8eeJ	.	.
8r	.	.	.	.	.	.	.	.	.	.	.	8eeL	を	.
8Rgg/	.	.	.	.	.	.	.	.	.	.	.	8ee	出	.
8r	.	.	.	.	.	.	.	.	.	.	.	8ff#	よ	.
8Rgg/	.	.	.	.	.	.	.	.	.	.	.	[8eeJ	う	.
=55	=55	=55	=55	=55	=55	=55	=55	=55	=55	=55	=55	=55	=55	=55
8r	1C#	.	.	1g#	uh	.	1b	uh	.	1b	uh	8ee]	.	.
8Rgg/	.	.	.	.	.	.	.	.	.	.	.	2r	.	.
8r	.	.	.	.	.	.	.	.	.	.	.	.	.	.
8Rgg/	.	.	.	.	.	.	.	.	.	.	.	.	.	.
8r	.	.	.	.	.	.	.	.	.	.	.	.	.	.
8Rgg/	.	.	.	.	.	.	.	.	.	.	.	4r	.	.
8r	.	.	.	.	.	.	.	.	.	.	.	.	.	.
8Rgg/	.	.	.	.	.	.	.	.	.	.	.	8r	.	.
=56	=56	=56	=56	=56	=56	=56	=56	=56	=56	=56	=56	=56	=56	=56
*^	*	*	*	*	*	*	*	*	*	*	*	*	*	*
8r	8Rf\	1GG#	.	.	1g#	fu	.	1a	fu	.	1cc#	fu	4r	.	.
8Rgg/	8r	.	.	.	.	.	.	.	.	.	.	.	.	.	.
8r	4r	.	.	.	.	.	.	.	.	.	.	.	8bbL	彼	.
8Rgg/	.	.	.	.	.	.	.	.	.	.	.	.	8eeJ	.	.
8r	8Rf\	.	.	.	.	.	.	.	.	.	.	.	8eeL	が	.
8Rgg/	8r	.	.	.	.	.	.	.	.	.	.	.	8dd#	目	.
8r	4r	.	.	.	.	.	.	.	.	.	.	.	8ee	を	.
8Rgg/	.	.	.	.	.	.	.	.	.	.	.	.	8dd#J	覚	.
=57	=57	=57	=57	=57	=57	=57	=57	=57	=57	=57	=57	=57	=57	=57	=57
8r	8Rf\	1AA	.	.	1f#	uh	.	1b	uh	.	1b	uh	4ee	まし	.
8Rgg/	8r	.	.	.	.	.	.	.	.	.	.	.	.	.	.
8r	4r	.	.	.	.	.	.	.	.	.	.	.	8ff#	た	.
8Rgg/	.	.	.	.	.	.	.	.	.	.	.	.	4gg#	時	.
8r	8Rf\	.	.	.	.	.	.	.	.	.	.	.	.	.	.
8Rgg/	8r	.	.	.	.	.	.	.	.	.	.	.	8eeL	連	.
8r	4r	.	.	.	.	.	.	.	.	.	.	.	8ee	れ	.
8Rgg/	.	.	.	.	.	.	.	.	.	.	.	.	8bJ	戻	.
=58	=58	=58	=58	=58	=58	=58	=58	=58	=58	=58	=58	=58	=58	=58	=58
8r	8Rf\	1BB	.	.	1g#	uh	.	1a	uh	.	1cc#	uh	8eeL	.	.
8Rgg/	8r	.	.	.	.	.	.	.	.	.	.	.	8ee	せ	.
8r	4r	.	.	.	.	.	.	.	.	.	.	.	8eeJ	.	.
8Rgg/	.	.	.	.	.	.	.	.	.	.	.	.	4ff#	ない	.
8r	8Rf\	.	.	.	.	.	.	.	.	.	.	.	.	.	.
8Rgg/	8r	.	.	.	.	.	.	.	.	.	.	.	8eeL	場所	.
8r	4r	.	.	.	.	.	.	.	.	.	.	.	8ff#	.	.
8Rgg/	.	.	.	.	.	.	.	.	.	.	.	.	8ff#J	.	.
=59	=59	=59	=59	=59	=59	=59	=59	=59	=59	=59	=59	=59	=59	=59	=59
8r	8Rf\	1C#	.	.	1g#	uh	.	1b	uh	.	1b	uh	1gg#	へ	.
8Rgg/	8r	.	.	.	.	.	.	.	.	.	.	.	.	.	.
8r	4r	.	.	.	.	.	.	.	.	.	.	.	.	.	.
8Rgg/	.	.	.	.	.	.	.	.	.	.	.	.	.	.	.
8r	8Rf\	.	.	.	.	.	.	.	.	.	.	.	.	.	.
8Rgg/	8r	.	.	.	.	.	.	.	.	.	.	.	.	.	.
8r	4r	.	.	.	.	.	.	.	.	.	.	.	.	.	.
8Rgg/	.	.	.	.	.	.	.	.	.	.	.	.	.	.	.
=60	=60	=60	=60	=60	=60	=60	=60	=60	=60	=60	=60	=60	=60	=60	=60
8r	8Rf\	1C#	.	.	1g#	fu	.	1a	fu	.	1cc#	fu	4r	.	.
8Rgg/	8r	.	.	.	.	.	.	.	.	.	.	.	.	.	.
8r	8Rf\	.	.	.	.	.	.	.	.	.	.	.	8bbL	せーの	.
8Rgg/	8r	.	.	.	.	.	.	.	.	.	.	.	8eeJ	.	.
8r	8Rf\	.	.	.	.	.	.	.	.	.	.	.	4ee	で	.
8Rgg/	8r	.	.	.	.	.	.	.	.	.	.	.	.	.	.
8r	8Rf\	.	.	.	.	.	.	.	.	.	.	.	8eeL	大地	.
8Rgg/	8r	.	.	.	.	.	.	.	.	.	.	.	8dd#J	.	.
=61	=61	=61	=61	=61	=61	=61	=61	=61	=61	=61	=61	=61	=61	=61	=61
8r	8Rf\	1BB	.	.	1f#	uh	.	1b	uh	.	1b	uh	4ee	.	.
8Rgg/	8r	.	.	.	.	.	.	.	.	.	.	.	.	.	.
8r	8Rf\	.	.	.	.	.	.	.	.	.	.	.	8ff#	を	.
8Rgg/	8r	.	.	.	.	.	.	.	.	.	.	.	4gg#	蹴	.
8r	8Rf\	.	.	.	.	.	.	.	.	.	.	.	.	.	.
8Rgg/	8r	.	.	.	.	.	.	.	.	.	.	.	8eeL	っ	.
8r	8Rf\	.	.	.	.	.	.	.	.	.	.	.	8ee	て	.
8Rgg/	8r	.	.	.	.	.	.	.	.	.	.	.	8bJ	こ	.
=62	=62	=62	=62	=62	=62	=62	=62	=62	=62	=62	=62	=62	=62	=62	=62
8r	8Rf\	1AA	.	.	1g#	uh	.	1a	uh	.	1cc#	uh	8eeL	こ	.
8Rgg/	8r	.	.	.	.	.	.	.	.	.	.	.	8ee	で	.
8r	8Rf\	.	.	.	.	.	.	.	.	.	.	.	8eeJ	は	.
8Rgg/	8r	.	.	.	.	.	.	.	.	.	.	.	4ee	ない	.
8r	8Rf\	.	.	.	.	.	.	.	.	.	.	.	.	.	.
8Rgg/	8r	.	.	.	.	.	.	.	.	.	.	.	8eeL	星	.
8r	8Rf\	.	.	.	.	.	.	.	.	.	.	.	8ff#	.	.
8Rgg/	8r	.	.	.	.	.	.	.	.	.	.	.	[8eeJ	へ	.
=63	=63	=63	=63	=63	=63	=63	=63	=63	=63	=63	=63	=63	=63	=63	=63
8r	8Rf\	1E	.	.	1g#	uh	.	1b	uh	.	1b	uh	1ee]	.	.
8Rgg/	8r	.	.	.	.	.	.	.	.	.	.	.	.	.	.
8r	8Rf\	.	.	.	.	.	.	.	.	.	.	.	.	.	.
8Rgg/	8r	.	.	.	.	.	.	.	.	.	.	.	.	.	.
8r	8Rf\	.	.	.	.	.	.	.	.	.	.	.	.	.	.
8Rgg/	8r	.	.	.	.	.	.	.	.	.	.	.	.	.	.
8r	8Rf\	.	.	.	.	.	.	.	.	.	.	.	.	.	.
8Rgg/	8r	.	.	.	.	.	.	.	.	.	.	.	.	.	.
*v	*v	*	*	*	*	*	*	*	*	*	*	*	*	*	*
=64	=64	=64	=64	=64	=64	=64	=64	=64	=64	=64	=64	=64	=64	=64
1r	2r	.	.	1r	.	.	2r	.	.	1r	.	2r	.	.
.	8r	.	.	.	.	.	8r	.	.	.	.	8r	.	.
.	8EL	行こう	.	.	.	.	8eL	行こう	.	.	.	8eeL	行こう	.
.	8F#	.	.	.	.	.	8f#	.	.	.	.	8ff#	.	.
.	8EJ	.	.	.	.	.	8eJ	.	.	.	.	8eeJ	.	.
=65	=65	=65	=65	=65	=65	=65	=65	=65	=65	=65	=65	=65	=65	=65
1r	1C#	.	.	4r	.	.	1b	fu	.	4r	.	1bb	fu	.
.	.	.	.	4B	もう	.	.	.	.	4b	もう	.	.	.
.	.	.	.	4A	少し	.	.	.	.	4a	少し	.	.	.
.	.	.	.	8G#L	で	.	.	.	.	8g#L	で	.	.	.
.	.	.	.	8G#J	運命	.	.	.	.	8g#J	運命	.	.	.
=66	=66	=66	=66	=66	=66	=66	=66	=66	=66	=66	=66	=66	=66	=66
1r	1GG#	.	.	8AL	.	.	1a	uh	.	8aL	.	1aa	uh	.
.	.	.	.	[8G#	.	.	.	.	.	[8g#	.	.	.	.
.	.	.	.	8G#]	.	.	.	.	.	8g#]	.	.	.	.
.	.	.	.	[8EJ	の	.	.	.	.	[8eJ	の	.	.	.
.	.	.	.	8EL]	.	.	.	.	.	8eL]	.	.	.	.
.	.	.	.	[8EJ	向こう	.	.	.	.	[8eJ	向こう	.	.	.
.	.	.	.	4E]	.	.	.	.	.	4e]	.	.	.	.
=67	=67	=67	=67	=67	=67	=67	=67	=67	=67	=67	=67	=67	=67	=67
1r	1E	.	.	4r	.	.	1e	uh	.	4r	.	1ee	uh	.
.	.	.	.	4B	もう	.	.	.	.	4b	もう	.	.	.
.	.	.	.	4A	少し	.	.	.	.	4a	少し	.	.	.
.	.	.	.	8G#L	で	.	.	.	.	8g#L	で	.	.	.
.	.	.	.	8G#J	文明	.	.	.	.	8g#J	文明	.	.	.
=68	=68	=68	=68	=68	=68	=68	=68	=68	=68	=68	=68	=68	=68	=68
1r	2E	.	.	8AL	.	.	2a	fu	.	8aL	.	2aa	fu	.
.	.	.	.	[8G#	.	.	.	.	.	[8g#	.	.	.	.
.	.	.	.	8G#]	.	.	.	.	.	8g#]	.	.	.	.
.	.	.	.	[8EJ	の	.	.	.	.	[8eJ	の	.	.	.
.	8r	.	.	8EL]	.	.	8r	.	.	8eL]	.	8r	.	.
.	8EL	行こう	.	[8EJ	向こう	.	8eL	行こう	.	[8eJ	向こう	8eeL	行こう	.
.	8F#	.	.	4E]	.	.	8f#	.	.	4e]	.	8ff#	.	.
.	8EJ	.	.	.	.	.	8eJ	.	.	.	.	8eeJ	.	.
=69	=69	=69	=69	=69	=69	=69	=69	=69	=69	=69	=69	=69	=69	=69
1r	1C#	.	.	4r	.	.	1b	fu	.	4r	.	1bb	fu	.
.	.	.	.	4B	もう	.	.	.	.	4b	もう	.	.	.
.	.	.	.	4A	少し	.	.	.	.	4a	少し	.	.	.
.	.	.	.	8G#L	で	.	.	.	.	8g#L	で	.	.	.
.	.	.	.	8G#J	運命	.	.	.	.	8g#J	運命	.	.	.
=70	=70	=70	=70	=70	=70	=70	=70	=70	=70	=70	=70	=70	=70	=70
1r	1GG#	.	.	8AL	.	.	1a	uh	.	8aL	.	1aa	uh	.
.	.	.	.	[8G#	.	.	.	.	.	[8g#	.	.	.	.
.	.	.	.	8G#]	.	.	.	.	.	8g#]	.	.	.	.
.	.	.	.	[8EJ	の	.	.	.	.	[8eJ	の	.	.	.
.	.	.	.	8EL]	.	.	.	.	.	8eL]	.	.	.	.
.	.	.	.	[8EJ	向こう	.	.	.	.	[8eJ	向こう	.	.	.
.	.	.	.	4E]	.	.	.	.	.	4e]	.	.	.	.
=71	=71	=71	=71	=71	=71	=71	=71	=71	=71	=71	=71	=71	=71	=71
1r	2.AA	.	.	4r	.	.	2r	.	.	4r	.	2r	.	.
.	.	.	.	4B	もう	.	.	.	.	4b	もう	.	.	.
.	.	.	.	4A	少し	.	4r	.	.	4a	少し	4r	.	.
.	8r	.	.	[8G#L	で	.	8r	.	.	[8g#L	で	8r	.	.
.	[8F#	.	.	8G#J]	.	.	[8f#	fu	.	8g#J]	.	[8ff#	fu	.
=72	=72	=72	=72	=72	=72	=72	=72	=72	=72	=72	=72	=72	=72	=72
1r	2F#]	.	.	2r	.	.	2f#]	.	.	2r	.	2ff#]	.	.
.	2A	.	.	2a	ha	.	2a	ha	.	2ff#	ha	2aa	ha	.
=73	=73	=73	=73	=73	=73	=73	=73	=73	=73	=73	=73	=73	=73	=73
1r	8EL	.	.	8BL	.	.	8eL	.	.	8g#L	.	8eeL	夢に	.
.	8F#	.	.	8c#	.	.	8f#	.	.	8a	.	8ff#	.	.
.	8G#	.	.	8d#	.	.	8g#	.	.	8b	.	8gg#	.	.
.	[8AJ	.	.	[8eJ	.	.	[8aJ	.	.	[8cc#J	.	[8aaJ	僕ら	.
.	8AL]	.	.	8eL]	.	.	8aL]	.	.	8cc#L]	.	8aaL]	.	.
.	8G#	.	.	8d#	.	.	8g#	.	.	8b	.	8gg#	.	.
.	8F#	.	.	8c#	.	.	8f#	.	.	8a	.	8ff#	で	.
.	[8EJ	.	.	[8BJ	.	.	[8eJ	.	.	[8g#J	.	[8eeJ	帆	.
=74	=74	=74	=74	=74	=74	=74	=74	=74	=74	=74	=74	=74	=74	=74
1r	8E]	.	.	8B]	.	.	8e]	.	.	8g#]	.	8ee]	を	.
.	4E	.	.	4B	.	.	4e	.	.	4g#	.	4ee	張って	.
.	[8F#	.	.	[8c#	.	.	[8f#	.	.	[8a	.	[8ff#	.	.
.	2F#]	.	.	2c#]	.	.	2f#]	.	.	2a]	.	2ff#]	.	.
=75	=75	=75	=75	=75	=75	=75	=75	=75	=75	=75	=75	=75	=75	=75
1r	8EL	.	.	8BL	.	.	8eL	.	.	8g#L	.	8eeL	来るべき	.
.	8E	.	.	8B	.	.	8e	.	.	8g#	.	8ee	.	.
.	8B	.	.	8f#	.	.	8b	.	.	8dd#	.	8bb	.	.
.	[8BJ	.	.	[8f#J	.	.	[8bJ	.	.	[8dd#J	.	[8bbJ	.	.
.	8BL]	.	.	8f#L]	.	.	8bL]	.	.	8dd#L]	.	8bbL]	.	.
.	8A	.	.	8e	.	.	8a	.	.	8cc#	.	8aa	日	.
.	8G#	.	.	8d#	.	.	8g#	.	.	8b	.	8gg#	の	.
.	[8F#J	.	.	[8c#J	.	.	[8f#J	.	.	[8aJ	.	[8ff#J	た	.
=76	=76	=76	=76	=76	=76	=76	=76	=76	=76	=76	=76	=76	=76	=76
1r	8F#L]	.	.	8c#L]	.	.	8f#L]	.	.	8aL]	.	8ff#L]	.	.
.	8G#	.	.	8d#	.	.	8g#	.	.	8b	.	8gg#	め	.
.	8A	.	.	8e	.	.	8a	.	.	8cc#	.	8aa	に	.
.	8G#J	.	.	8d#J	.	.	8g#J	.	.	8bJ	.	8gg#J	夜	.
.	8G#L	.	.	8d#L	.	.	8g#L	.	.	8bL	.	8gg#L	.	.
.	8A	.	.	8e	.	.	8a	.	.	8cc#	.	8aa	を	.
.	8G#	.	.	8d#	.	.	8g#	.	.	8b	.	8gg#	越	.
.	8F#J	.	.	8c#J	.	.	8f#J	.	.	8aJ	.	8ff#J	え	.
=77	=77	=77	=77	=77	=77	=77	=77	=77	=77	=77	=77	=77	=77	=77
*^	*	*	*	*	*	*	*	*	*	*	*	*	*	*
1r	4Rf\	8EL	.	.	8BL	.	.	8eL	.	.	8g#L	.	8eeL	い	.
.	.	8F#	.	.	8c#	.	.	8f#	.	.	8a	.	8ff#	ざ	.
.	4r	8G#	.	.	8d#	.	.	8g#	.	.	8b	.	8gg#	期待	.
.	.	[8AJ	.	.	[8eJ	.	.	[8aJ	.	.	[8cc#J	.	[8aaJ	.	.
.	4Rf\	8AL]	.	.	8eL]	.	.	8aL]	.	.	8cc#L]	.	8aaL]	.	.
.	.	8G#	.	.	8d#	.	.	8g#	.	.	8b	.	8gg#	だ	.
.	8r	8F#	.	.	8c#	.	.	8f#	.	.	8a	.	8ff#	け	.
.	8Rf\	[8EJ	.	.	[8BJ	.	.	[8eJ	.	.	[8g#J	.	[8eeJ	満	.
=78	=78	=78	=78	=78	=78	=78	=78	=78	=78	=78	=78	=78	=78	=78	=78
1r	4Rf\	8E]	.	.	8B]	.	.	8e]	.	.	8g#]	.	8ee]	.	.
.	.	4E	.	.	4B	.	.	4e	.	.	4g#	.	4ee	タン	.
.	4r	.	.	.	.	.	.	.	.	.	.	.	.	.	.
.	.	[8F#	.	.	[8c#	.	.	[8f#	.	.	[8a	.	[8ff#	で	.
.	4Rf\	2F#]	.	.	2c#]	.	.	2f#]	.	.	2a]	.	2ff#]	.	.
.	8Rf\L	.	.	.	.	.	.	.	.	.	.	.	.	.	.
.	8Rf\J	.	.	.	.	.	.	.	.	.	.	.	.	.	.
=79	=79	=79	=79	=79	=79	=79	=79	=79	=79	=79	=79	=79	=79	=79	=79
1r	4Rf\	8EL	.	.	8BL	.	.	8eL	.	.	8g#L	.	8eeL	あ	.
.	.	8E	.	.	8B	.	.	8e	.	.	8g#	.	8ee	と	.
.	4r	8B	.	.	8f#	.	.	8b	.	.	8dd#	.	8bb	は	.
.	.	[8BJ	.	.	[8f#J	.	.	[8bJ	.	.	[8dd#J	.	[8bbJ	ど	.
.	4Rf\	8BL]	.	.	8f#L]	.	.	8bL]	.	.	8dd#L]	.	8bbL]	う	.
.	.	8A	.	.	8e	.	.	8a	.	.	8cc#	.	8aa	に	.
.	8r	8G#	.	.	8d#	.	.	8g#	.	.	8b	.	8gg#	か	.
.	8Rf\	[8F#J	.	.	[8c#J	.	.	[8f#J	.	.	[8aJ	.	[8ff#J	な	.
=80	=80	=80	=80	=80	=80	=80	=80	=80	=80	=80	=80	=80	=80	=80	=80
1r	4Rf\	8F#L]	.	.	8c#L]	.	.	8f#L]	.	.	8aL]	.	8ff#L]	る	.
.	.	8F#	.	.	8c#	.	.	8f#	.	.	8a	.	8ff#	さ	.
.	4r	8G#	.	.	8d#	.	.	8g#	.	.	8b	.	8gg#	と	.
.	.	8AJ	.	.	8eJ	.	.	8aJ	.	.	8cc#J	.	8aaJ	肩	.
.	4Rf\	8G#L	.	.	8d#L	.	.	8g#L	.	.	8bL	.	8gg#L	.	.
.	.	8A	.	.	8e	.	.	8a	.	.	8cc#	.	8aa	を	.
.	8Rf\L	8G#	.	.	8d#	.	.	8g#	.	.	8b	.	8gg#	組	.
.	8Rf\J	8F#J	.	.	8c#J	.	.	8f#J	.	.	8aJ	.	8ff#J	ん	.
*v	*v	*	*	*	*	*	*	*	*	*	*	*	*	*	*
=81	=81	=81	=81	=81	=81	=81	=81	=81	=81	=81	=81	=81	=81	=81
8Rf\L	4E	.	.	4B	.	.	4e	.	.	4g#	.	4ee	だ	.
8Rgg\	.	.	.	.	.	.	.	.	.	.	.	.	.	.
8Rf\	8r	.	.	8r	.	.	8r	.	.	8r	.	8r	.	.
8Rgg\J	8BB	.	.	8F#	.	.	8B	.	.	8d#	.	8b	怖	.
8Rf\L	4E	.	.	4B	.	.	4e	.	.	4g#	.	4ee	.	.
8Rgg\J	.	.	.	.	.	.	.	.	.	.	.	.	.	.
8Rf\L	8D#L	.	.	8AL	.	.	8d#L	.	.	8f#L	.	8dd#L	く	.
16Rgg\L	[8EJ	.	.	[8BJ	.	.	[8eJ	.	.	[8g#J	.	[8eeJ	な	.
16Rgg\JJ	.	.	.	.	.	.	.	.	.	.	.	.	.	.
=82	=82	=82	=82	=82	=82	=82	=82	=82	=82	=82	=82	=82	=82	=82
8Rf\L	4E]	.	.	4B]	.	.	4e]	.	.	4g#]	.	4ee]	い	.
8Rgg\	.	.	.	.	.	.	.	.	.	.	.	.	.	.
8Rf\	4r	.	.	4r	.	.	4r	.	.	4r	.	4r	.	.
8Rgg\J	.	.	.	.	.	.	.	.	.	.	.	.	.	.
8Rf\L	4E	.	.	4B	.	.	4e	.	.	4g#	.	4ee	わ	.
16Rgg\K	.	.	.	.	.	.	.	.	.	.	.	.	.	.
8Rgg\	.	.	.	.	.	.	.	.	.	.	.	.	.	.
.	8EL	.	.	8BL	.	.	8eL	.	.	8g#L	.	8eeL	け	.
16Rf\K	.	.	.	.	.	.	.	.	.	.	.	.	.	.
8Rgg\J	8EJ	.	.	8BJ	.	.	8eJ	.	.	8g#J	.	8eeJ	な	.
=83	=83	=83	=83	=83	=83	=83	=83	=83	=83	=83	=83	=83	=83	=83
8Rf\L	4F#	.	.	4c#	.	.	4f#	.	.	4a	.	4ff#	い	.
8Rgg\	.	.	.	.	.	.	.	.	.	.	.	.	.	.
8Rf\	8F#L	.	.	8c#L	.	.	8f#L	.	.	8aL	.	8ff#L	で	.
8Rgg\J	8F#J	.	.	8c#J	.	.	8f#J	.	.	8aJ	.	8ff#J	も	.
8Rf\L	8F#	.	.	8c#	.	.	8f#	.	.	8a	.	8ff#	止	.
8Rgg\J	4G#	.	.	4d#	.	.	4g#	.	.	4b	.	4gg#	まん	.
8Rf\L	.	.	.	.	.	.	.	.	.	.	.	.	.	.
16Rgg\L	[8G#	.	.	[8d#	.	.	[8g#	.	.	[8b	.	[8gg#	な	.
16Rgg\JJ	.	.	.	.	.	.	.	.	.	.	.	.	.	.
=84	=84	=84	=84	=84	=84	=84	=84	=84	=84	=84	=84	=84	=84	=84
8Rf\L	8G#]	.	.	8d#]	.	.	8g#]	.	.	8b]	.	8gg#]	い	.
8Rgg\	4r	.	.	4r	.	.	4r	.	.	4r	.	4r	.	.
8Rf\	.	.	.	.	.	.	.	.	.	.	.	.	.	.
8Rgg\J	8r	.	.	8r	.	.	8r	.	.	8r	.	8r	.	.
8Rf\L	4E	.	.	4B	.	.	4e	.	.	4g#	.	4ee	ピンチ	.
16Rgg\K	.	.	.	.	.	.	.	.	.	.	.	.	.	.
8Rgg\	.	.	.	.	.	.	.	.	.	.	.	.	.	.
.	8D#L	.	.	8AL	.	.	8d#L	.	.	8f#L	.	8dd#L	.	.
16Rf\K	.	.	.	.	.	.	.	.	.	.	.	.	.	.
8Rgg\J	[8EJ	.	.	[8BJ	.	.	[8eJ	.	.	[8g#J	.	[8eeJ	の	.
=85	=85	=85	=85	=85	=85	=85	=85	=85	=85	=85	=85	=85	=85	=85
8Rf\L	4E]	.	.	4B]	.	.	4e]	.	.	4g#]	.	4ee]	.	.
8Rgg\	.	.	.	.	.	.	.	.	.	.	.	.	.	.
8Rf\	8r	.	.	8r	.	.	8r	.	.	8r	.	8r	.	.
8Rgg\J	8BB	.	.	8F#	.	.	8B	.	.	8d#	.	8b	先	.
8Rf\L	8EL	.	.	8BL	.	.	8eL	.	.	8g#L	.	8eeL	.	.
8Rgg\J	8F#	.	.	8c#	.	.	8f#	.	.	8a	.	8ff#	回り	.
8Rf\L	8E	.	.	8B	.	.	8e	.	.	8g#	.	8ee	.	.
16Rgg\L	[8EJ	.	.	[8BJ	.	.	[8eJ	.	.	[8g#J	.	[8eeJ	.	.
16Rgg\JJ	.	.	.	.	.	.	.	.	.	.	.	.	.	.
=86	=86	=86	=86	=86	=86	=86	=86	=86	=86	=86	=86	=86	=86	=86
8Rf\L	4E]	.	.	4B]	.	.	4e]	.	.	4g#]	.	4ee]	.	.
8Rgg\	.	.	.	.	.	.	.	.	.	.	.	.	.	.
8Rf\	8r	.	.	8r	.	.	8r	.	.	8r	.	8r	.	.
8Rgg\J	8BB	.	.	8F#	.	.	8B	.	.	8d#	.	8b	し	.
8Rf\L	4D#	.	.	4A	.	.	4d#	.	.	4f#	.	4dd#	た	.
16Rgg\K	.	.	.	.	.	.	.	.	.	.	.	.	.	.
8Rgg\	.	.	.	.	.	.	.	.	.	.	.	.	.	.
.	8EL	.	.	8BL	.	.	8eL	.	.	8g#L	.	8eeL	って	.
16Rf\K	.	.	.	.	.	.	.	.	.	.	.	.	.	.
8Rgg\J	[8F#J	.	.	[8c#J	.	.	[8f#J	.	.	[8aJ	.	[8ff#J	ぼ	.
=87	=87	=87	=87	=87	=87	=87	=87	=87	=87	=87	=87	=87	=87	=87
8Rf\L	8F#L]	.	.	8c#L]	.	.	8f#L]	.	.	8aL]	.	8ff#L]	.	.
8Rgg\	8F#	.	.	8c#	.	.	8f#	.	.	8a	.	8ff#	く	.
8Rf\	8F#	.	.	8c#	.	.	8f#	.	.	8a	.	8ff#	ら	.
8Rgg\J	8F#J	.	.	8c#J	.	.	8f#J	.	.	8aJ	.	8ff#J	じゃ	.
8Rf\L	4F#	.	.	4c#	.	.	4f#	.	.	4a	.	4ff#	しょう	.
8Rgg\J	.	.	.	.	.	.	.	.	.	.	.	.	.	.
8Rf\L	8G#L	.	.	8d#L	.	.	8g#L	.	.	8bL	.	8gg#L	が	.
16Rgg\L	[8G#J	.	.	[8d#J	.	.	[8g#J	.	.	[8bJ	.	[8gg#J	な	.
16Rgg\JJ	.	.	.	.	.	.	.	.	.	.	.	.	.	.
=88	=88	=88	=88	=88	=88	=88	=88	=88	=88	=88	=88	=88	=88	=88
*^	*	*	*	*	*	*	*	*	*	*	*	*	*	*
1r	8Rf\L	4G#]	.	.	4d#]	.	.	4g#]	.	.	4b]	.	4gg#]	い	.
.	8Rgg\	.	.	.	.	.	.	.	.	.	.	.	.	.	.
.	8Rf\	4r	.	.	4r	.	.	4r	.	.	4r	.	4r	.	.
.	8Rgg\J	.	.	.	.	.	.	.	.	.	.	.	.	.	.
.	4r	8AL	.	.	8eL	.	.	8aL	.	.	8aL	.	8aaL	僕らの	.
.	.	8G#	.	.	8d#	.	.	8g#	.	.	8g#	.	8gg#	.	.
.	4r	8F#	.	.	8c#	.	.	8f#	.	.	8f#	.	8ff#	.	.
.	.	[8EJ	.	.	[8BJ	.	.	[8eJ	.	.	[8eJ	.	[8eeJ	.	.
*v	*v	*	*	*	*	*	*	*	*	*	*	*	*	*	*
=89	=89	=89	=89	=89	=89	=89	=89	=89	=89	=89	=89	=89	=89	=89
1r	4E]	.	.	4B]	.	.	4e]	.	.	4e]	.	4ee]	.	.
.	4r	.	.	4r	.	.	4r	.	.	4r	.	4r	.	.
.	8AL	.	.	8eL	.	.	8aL	.	.	8cc#L	.	8aaL	.	.
.	8G#	.	.	8d#	.	.	8g#	.	.	8b	.	8gg#	恋が言う	.
.	8F#	.	.	8c#	.	.	8f#	.	.	8a	.	8ff#	.	.
.	[8EJ	.	.	[8BJ	.	.	[8eJ	.	.	[8g#J	.	[8eeJ	.	.
=90	=90	=90	=90	=90	=90	=90	=90	=90	=90	=90	=90	=90	=90	=90
1r	4E]	.	.	4B]	.	.	4e]	.	.	4g#]	.	4ee]	.	.
.	4r	.	.	4r	.	.	4r	.	.	4r	.	4r	.	.
.	8AL	.	.	8eL	.	.	8f#L	.	.	8cc#L	.	8aaL	声が言う	.
.	8G#	.	.	8d#	.	.	8g#	.	.	8b	.	8gg#	.	.
.	8F#	.	.	8c#	.	.	8a	.	.	8a	.	8ff#	.	.
.	[8EJ	.	.	[8BJ	.	.	[8bJ	.	.	[8g#J	.	[8eeJ	.	.
=91	=91	=91	=91	=91	=91	=91	=91	=91	=91	=91	=91	=91	=91	=91
1r	1E]	.	.	1B]	.	.	1b]	.	.	1g#]	.	1ee]	.	.
=92	=92	=92	=92	=92	=92	=92	=92	=92	=92	=92	=92	=92	=92	=92
4Raa/	4r	.	.	4r	.	.	4r	.	.	4r	.	4r	.	.
4r	8r	.	.	8r	.	.	8r	.	.	8r	.	8r	.	.
.	8E	.	.	8B	.	.	8e	.	.	8g#	.	8ee	行けという	.
2r	8AL	.	.	8eL	.	.	8f#L	.	.	8cc#L	.	8aaL	.	.
.	8G#	.	.	8d#	.	.	8g#	.	.	8b	.	8gg#	.	.
.	8F#	.	.	8c#	.	.	8a	.	.	8a	.	8ff#	.	.
.	[8EJ	.	.	[8BJ	.	.	[8bJ	.	.	[8g#J	.	[8eeJ	.	.
=93	=93	=93	=93	=93	=93	=93	=93	=93	=93	=93	=93	=93	=93	=93
1r	4E]	.	.	4B]	.	.	4b]	.	.	4g#]	.	4ee]	.	.
.	2r	.	.	2r	.	.	2r	.	.	2r	.	2r	.	.
.	4r	.	.	4r	.	.	4r	.	.	4r	.	4r	.	.
==	==	==	==	==	==	==	==	==	==	==	==	==	==	==
*-	*-	*-	*-	*-	*-	*-	*-	*-	*-	*-	*-	*-	*-	*-
